build/img/sprites/price_decor_company.svg

<svg width="322" height="299" viewBox="0 0 322 299" fill="none" xmlns="http://www.w3.org/2000/svg">
<path fill-rule="evenodd" clip-rule="evenodd" d="M-35.7579 121.242L-92.7665 106.637C-82.9727 181.599 -45.5099 252.255 31.0175 283.656C115.646 312.967 172.157 296.161 218.338 262.026L246.03 276.057L277.5 243.802L262.373 218.164C269.493 208.388 275.61 198.013 280.712 187.041L310.606 184.728L321.8 141.041L297.637 127.417C299.196 114.523 299.422 101.668 298.314 88.8556L321.235 73.1306L309.155 29.7184L283.704 30.0195C265.867 -12.8162 226.221 -53.8746 184.032 -72.2334L130.201 -88.5128C99.6384 -96.3291 51.5748 -108.621 50.4142 -108.891L37.9802 -60.3681C40.311 -59.8687 142.122 -33.6281 144.5 -33.0188C169.059 -26.7265 190.465 -14.5971 208.44 3.32779C226.461 21.2921 238.942 42.5938 245.902 67.1933C252.857 91.6288 253.162 116.318 246.844 141.188C240.424 166.028 228.283 187.532 210.434 205.611C192.499 223.835 171.306 236.48 146.872 243.599C122.45 250.653 97.9179 251.024 73.3284 244.725C3.98114 226.96 -25.168 177.801 -35.7579 121.242ZM-87.5818 84.4853L-30.6414 99.0721L-24.4202 74.7924L-81.3607 60.2057L-87.5818 84.4853ZM-76.269 40.3344L-19.3285 54.9212L-13.106 30.6389L-70.0471 16.052L-76.269 40.3344ZM-64.6734 -4.9166L-7.73231 9.67032L-1.51158 -14.6079L-58.452 -29.1946L-64.6734 -4.9166ZM-53.569 -48.2812L-32.5462 -130.321L24.4019 -115.732L3.37911 -33.6924L-53.569 -48.2812Z" fill="#017AA9"/>
<path fill-rule="evenodd" clip-rule="evenodd" d="M5.90283 60.7497L63.9185 19.9702C67.246 17.6325 82.5966 18.4313 86.5202 23.8456L160.547 126.009L140.496 140.081L80.5939 53.8802C77.8113 51.051 78.9483 47.9735 72.8582 47.9009L67.8794 51.3064L33.7107 75.0481C31.2146 77.436 28.656 77.6551 29.9655 83.4258L31.9858 86.7038L95.8137 172.666L75.9073 187.014L1.59775 83.481C-1.23608 79.5315 1.64275 63.7429 5.90283 60.7497Z" fill="#017AA9"/>
<path fill-rule="evenodd" clip-rule="evenodd" d="M208.03 149.391L150.015 190.171C146.69 192.509 131.336 191.709 127.413 186.295L53.3897 84.1316L73.4385 70.0586L133.339 156.257C136.124 159.087 134.984 162.166 141.075 162.239L146.057 158.833L180.222 135.089C182.718 132.702 185.279 132.486 183.965 126.714L181.946 123.434L118.119 37.4737L138.027 23.1257L212.336 126.659C215.167 130.607 212.291 146.395 208.03 149.391Z" fill="#017AA9"/>
</svg>

<svg width="322" height="299" viewBox="0 0 322 299" fill="none" xmlns="http://www.w3.org/2000/svg"><path fill-rule="evenodd" clip-rule="evenodd" d="M-35.758 121.242l-57.008-14.605c9.793 74.962 47.256 145.618 123.784 177.019 84.628 29.311 141.139 12.505 187.32-21.63l27.692 14.031 31.47-32.255-15.127-25.638a185.873 185.873 0 0018.339-31.123l29.894-2.313 11.194-43.687-24.163-13.624a186.534 186.534 0 00.677-38.561l22.921-15.725-12.08-43.413-25.451.302c-17.837-42.836-57.483-83.895-99.672-102.253l-53.831-16.28c-30.563-7.816-78.626-20.108-79.787-20.378L37.98-60.368c2.331.5 104.142 26.74 106.52 27.35 24.559 6.291 45.965 18.42 63.94 36.346 18.021 17.964 30.502 39.266 37.462 63.865 6.955 24.436 7.26 49.125.942 73.995-6.42 24.84-18.561 46.344-36.41 64.423-17.935 18.224-39.128 30.869-63.562 37.988-24.422 7.054-48.954 7.425-73.544 1.126C3.981 226.96-25.168 177.801-35.758 121.242zm-51.824-36.757l56.94 14.587 6.222-24.28-56.94-14.586-6.222 24.28zm11.313-44.15l56.94 14.586 6.223-24.282-56.941-14.587-6.222 24.282zm11.596-45.252L-7.733 9.67l6.221-24.278-56.94-14.587-6.221 24.278zM-53.57-48.28l21.023-82.04 56.948 14.589-21.023 82.04-56.948-14.59z" fill="#017AA9"/><path fill-rule="evenodd" clip-rule="evenodd" d="M5.903 60.75l58.016-40.78c3.327-2.337 18.678-1.539 22.601 3.876l74.027 102.163-20.051 14.072-59.902-86.2c-2.783-2.83-1.646-5.907-7.736-5.98l-4.979 3.405-34.168 23.742c-2.496 2.388-5.055 2.607-3.745 8.378l2.02 3.278 63.828 85.962-19.907 14.348L1.597 83.481c-2.833-3.95.046-19.738 4.306-22.731z" fill="#017AA9"/><path fill-rule="evenodd" clip-rule="evenodd" d="M208.03 149.391l-58.015 40.78c-3.325 2.338-18.679 1.538-22.602-3.876L53.39 84.132l20.049-14.073 59.9 86.198c2.785 2.83 1.645 5.909 7.736 5.982l4.982-3.406 34.165-23.744c2.496-2.387 5.057-2.603 3.743-8.375l-2.019-3.28-63.827-85.96 19.908-14.348 74.309 103.533c2.831 3.948-.045 19.736-4.306 22.732z" fill="#017AA9"/></svg>
